workspaces/osm/styles/symbols/christian.9.svg

<svg width="9" height="9" version="1.1" viewBox="0 0 9 9" xmlns="http://www.w3.org/2000/svg"><rect id="a" width="9" height="9" fill="none" visibility="hidden"/><path d="m4.5 1c-0.26032-0.022537-0.49176 0.19509-0.49772 0.45386-0.0052956 0.51524-7.878e-4 1.0308-0.0022847 1.5461h-2v1h2v4h1v-4h2v-1h-2c-0.0014952-0.51536 0.003005-1.0309-0.0022761-1.5461-0.0092419-0.26204-0.23311-0.47372-0.49772-0.45386z"/></svg>

<?xml version="1.0" encoding="UTF-8" standalone="no"?>
<!-- Created with Inkscape (http://www.inkscape.org/) -->

<svg
   xmlns="http://www.w3.org/2000/svg"
   version="1.1"
   width="9"
   height="9"
   viewBox="0 0 9 9">
  <rect
     width="9"
     height="9"
     x="0"
     y="0"
     id="canvas"
     style="fill:none;stroke:none;visibility:hidden" />
  <path
     d="M 4.5,1 C 3.9882,1 4,1.5 4,1.5 L 4,3 2,3 2,4 4,4 4,8 5,8 5,4 7,4 7,3 5,3 5,1.5 C 5,1.5 5.0119,1 4.5,1 z"
     id="path3038" />
</svg>
